X:1
T:Title
%%score { ( 1 4 ) | ( 2 3 ) }
L:1/8
M:4/4
K:Bb
V:1 treble nm="Grand Piano"
V:4 treble 
V:2 bass 
V:3 bass 
V:1
 z4 z2[Q:1/4=104] [DF]2 | [DF]2 [DB]>[Ec] [Fd]2 [Ge]>[Fd] | c6 A2 | A2 A>B c2 d>c | [DB]6 [DF]2 | %5
 [DF]2 [DB]>[Ec] [Fd]2 [DB]>[Ge] | [Fd]6 [DB]d | f2 [Fd]>[FB] [Ec][Ge] [Fd]>[Ec] |[M:3/4] [DB]6 | %9
[M:1/4] GB |[M:4/4] [Ge]2 [EG]>[GB] [Ge]2 [EG]>[Ge] | [Fd]6 [DB]d | f2 [Fd]>[Ec] [DB]2 [Fd]>[Fd] | %13
 c6 z2 | [B,FB]2 [B,FB]>[B,FB] c2 c>c | d6[K:bass][K:treble] z2 | d2 d>d c2 d>c |[M:3/4] [DB]6 |] %18
V:2
 z4 z2 [B,,B,]2 | [B,,B,]2 [B,,B,]>[B,,B,] [B,,B,]2 [B,,B,]>[B,,B,] | [F,A,E]6 [F,CE]2 | %3
 [F,CE]2 [F,E]>[F,G,E] [F,A,E]2 [F,A,F]>[F,A,E] | [B,,B,]6 [B,,B,]2 | %5
 [B,,B,]2 [B,,B,]>[B,,B,] [B,,B,]2 [B,,B,]>[B,,B,] | [B,,B,]6 F,[K:treble][B,F] | %7
 [B,,DB]2[K:bass] [B,,B,]>[D,B,] [F,A,]2 [=E,A,]>[E,A,] |[M:3/4] [B,,F,]6 |[M:1/4] [E,B,E]2 | %10
[M:4/4] [E,B,]2 [E,B,]>[E,B,] [E,B,]2 [E,B,]>[E,B,] | B,4 z2 .F,2 | %12
 [B,,DB]2 [B,,B,]>[B,,F,] [B,,F,]2 [B,,B,]>[B,,B,] | [A,E]2 CB, A,2 F,E, | %14
 D,2 D,>D,[K:treble] [F,A,F]2 [F,A,F]>[F,A,F] | F6[K:bass] [E,B,]2 | %16
 [F,B,F]2 [F,B,F]>[F,B,F] [F,A,E]2 [F,A,F]>[A,E] |[M:3/4] [B,,F,]6 |] %18
V:3
 x8 | x8 | x8 | x8 | x8 | x8 | z4 z2 B,,2[K:treble] | x2[K:bass] x6 |[M:3/4] x6 |[M:1/4] x2 | %10
[M:4/4] x8 | z2 F,D, B,,2 B,,-[B,,B,F] | x8 | F,6 z2 | x4[K:treble] x4 | B,4 z4[K:bass] | x8 | %17
[M:3/4] x6 |] %18
V:4
 x8 | x8 | x8 | x8 | x8 | x8 | x8 | x8 |[M:3/4] x6 |[M:1/4] x2 |[M:4/4] x8 | x8 | x8 | %13
 z2 AG F2 [CFA]2 | x8 | z2[K:bass] F,D, B,,2[K:treble] [Ge]2 | x8 |[M:3/4] x6 |] %18

